original/processed/sdl.svg

<?xml version="1.0" encoding="UTF-8" standalone="no"?>
<svg
   xmlns:dc="http://purl.org/dc/elements/1.1/"
   xmlns:cc="http://creativecommons.org/ns#"
   xmlns:rdf="http://www.w3.org/1999/02/22-rdf-syntax-ns#"
   xmlns:svg="http://www.w3.org/2000/svg"
   xmlns="http://www.w3.org/2000/svg"
   style="display: block;"
   height="400"
   width="400"
   version="1.1"
   id="svg">
  <metadata
     id="metadata9">
    <rdf:RDF>
      <cc:Work
         rdf:about="">
        <dc:format>image/svg+xml</dc:format>
        <dc:type
           rdf:resource="http://purl.org/dc/dcmitype/StillImage" />
        <dc:title></dc:title>
      </cc:Work>
    </rdf:RDF>
  </metadata>
  <defs
     id="defs7" />
  <g
     id="svgg">
    <path
       style="fill:#000000;fill-rule:evenodd;stroke:none"
       d="m 313.319,99.612 c -0.722,1.881 5.252,7.771 6.868,6.772 0.475,-0.293 0.765,-0.162 0.645,0.292 -0.12,0.453 2.531,3.675 5.89,7.159 3.359,3.484 6.934,7.22 7.943,8.301 1.009,1.081 3.092,3.181 4.627,4.665 1.536,1.484 3.5,4.162 4.364,5.949 0.865,1.787 1.954,3.25 2.422,3.25 1.439,0 5.922,7.333 5.922,9.687 0,1.222 1.224,3.446 2.719,4.941 4.295,4.295 6.534,9.213 5.851,12.853 -0.466,2.482 0.046,4.135 2.335,7.544 2.926,4.356 2.928,4.372 1.014,6.805 -2.184,2.777 -2.425,5.356 -0.786,8.419 3.333,6.226 0.945,17.751 -3.678,17.751 -5.944,0 -8.76,3.607 -8.206,10.508 0.564,7.037 0.412,7.431 -5.122,13.242 -3.381,3.551 -4.675,4.25 -7.864,4.25 -5.585,0 -8.263,2.259 -8.263,6.969 0,5.487 -12.063,14.031 -19.811,14.031 -5.021,0 -8.189,1.984 -8.189,5.129 0,2.472 -15.136,9.273 -19.179,8.617 -5.355,-0.869 -8.76,0.164 -9.438,2.864 -0.436,1.739 -1.704,2.678 -4.739,3.512 -2.279,0.627 -6.911,1.923 -10.292,2.881 -3.689,1.045 -6.689,1.399 -7.5,0.884 -2.275,-1.441 -4.568,-0.996 -7.525,1.462 -3.057,2.541 -11.182,3.958 -23.411,4.084 -3.622,0.037 -7.222,0.569 -8,1.183 -1.926,1.517 -22.565,2.762 -23.4,1.411 -0.857,-1.388 -6.224,-1.308 -7.098,0.106 -1.08,1.748 -21.998,0.188 -25.146,-1.874 -1.937,-1.269 -2.864,-1.371 -4.305,-0.47 -2.002,1.25 -19.403,-0.961 -23.65,-3.004 -1.2,-0.578 -2.951,-0.756 -3.89,-0.395 -0.957,0.367 -2.856,-0.097 -4.318,-1.055 -1.435,-0.94 -5.822,-2.269 -9.75,-2.952 -3.927,-0.683 -10.08,-2.616 -13.672,-4.295 -3.592,-1.68 -8.591,-3.605 -11.109,-4.278 C 83.06,266.136 81,265.229 81,264.793 81,264.357 80.339,264 79.53,264 c -0.808,0 -2.945,-0.823 -4.75,-1.829 -6.509,-3.63 -13.558,-3.361 -12.091,0.461 0.44,1.147 0.272,1.462 -0.519,0.973 -0.644,-0.398 -1.17,-0.516 -1.17,-0.263 0,0.807 6.53,4.348 10.331,5.602 2.018,0.666 3.669,1.626 3.669,2.134 0,0.507 0.338,0.852 0.75,0.766 0.412,-0.086 2.321,0.549 4.24,1.41 1.92,0.862 3.832,1.356 4.25,1.098 0.418,-0.259 0.76,-0.046 0.76,0.472 0,0.904 3.69,2.509 5.25,2.284 0.412,-0.059 0.75,0.342 0.75,0.892 0,0.55 0.873,1 1.941,1 1.068,0 2.219,0.45 2.559,1 0.34,0.55 1.941,1 3.559,1 1.618,0 2.941,0.436 2.941,0.969 0,0.532 0.749,0.681 1.664,0.33 1.042,-0.4 1.418,-0.241 1.007,0.424 -0.378,0.612 0.507,1.342 2.086,1.719 1.509,0.361 7.243,2.073 12.743,3.805 5.5,1.732 10.338,3.229 10.75,3.326 0.412,0.098 0.863,0.268 1,0.379 0.454,0.365 3.186,1.031 7.75,1.889 2.475,0.465 6.3,1.348 8.5,1.963 8.231,2.3 29.854,5.676 43.5,6.792 11.709,0.957 54.728,1.294 59,0.462 2.475,-0.482 8.196,-1.135 12.713,-1.451 4.517,-0.316 11.717,-1.467 16,-2.559 4.283,-1.091 9.025,-2.223 10.537,-2.516 1.512,-0.293 3.89,-0.768 5.283,-1.058 10.005,-2.075 36.847,-14.11 46.335,-20.774 9.822,-6.899 28.132,-24.639 28.132,-27.258 0,-0.317 1.178,-2.12 2.619,-4.009 1.44,-1.888 2.354,-3.433 2.03,-3.433 -0.324,0 0.523,-1.638 1.881,-3.64 2.059,-3.033 2.818,-5.124 2.4,-6.61 -0.039,-0.137 0.454,-1.6 1.096,-3.25 2.188,-5.629 3.974,-13.591 3.992,-17.799 0.011,-2.31 0.712,-8.026 1.559,-12.701 2.811,-15.524 -1.365,-36.564 -9.647,-48.601 -1.611,-2.343 -2.93,-4.512 -2.93,-4.822 0,-2.234 -27.907,-30.046 -30.173,-30.07 -0.37,-0.004 -2.395,-1.262 -4.5,-2.797 -12.621,-9.199 -22.723,-13.448 -24.008,-10.098 M 46.743,106.901 C 24.67,111.524 12,125.417 12,145 c 0,24.405 10.902,34.274 47,42.548 9.179,2.103 12,3.727 12,6.904 0,7.627 -14.44,11.164 -27.5,6.735 C 32.922,197.6 30.608,196.542 25.013,192.734 20.796,189.864 18.541,189 15.263,189 H 11 v 15.845 c 0,18.896 -0.908,17.473 14.5,22.722 26.697,9.095 59.509,4.555 73.944,-10.23 l 5.556,-5.69 v 7.021 c 0,11.099 -1.825,10.559 34.165,10.105 28.288,-0.357 30.807,-0.536 37.335,-2.664 15.754,-5.134 29.784,-18.363 34.298,-32.339 l 1.702,-5.27 0.272,18.615 c 0.359,24.667 -5.106,21.967 43.82,21.647 L 296.5,228.5 296.782,216.104 C 297.173,198.924 298.859,200 271.542,200 H 250 v -43.845 c 0,-53.121 2.49,-47.31 -20.107,-46.93 l -16.393,0.275 -0.5,21 c -0.484,20.336 -0.546,20.842 -1.942,16 -1.604,-5.565 -4.781,-11.578 -6.762,-12.8 -0.713,-0.44 -1.296,-1.294 -1.296,-1.9 0,-3.337 -21.255,-19.358 -26,-19.598 -0.825,-0.041 -5.343,-0.787 -10.04,-1.656 -6.698,-1.239 -14.248,-1.522 -35,-1.313 l -26.46,0.267 -0.32,3.341 c -0.303,3.161 -0.419,3.253 -2.137,1.698 -6.291,-5.694 -42.275,-10.576 -56.3,-7.638 m 31.416,30.724 c 7.163,2.584 15.021,6.858 15.674,8.524 0.184,0.468 2.771,0.851 5.75,0.851 H 105 v 11.5 c 0,13.269 0.303,12.895 -5.517,6.821 C 97.017,162.748 95,160.978 95,161.389 c 0,0.411 -1.237,-0.131 -2.75,-1.204 -4.42,-3.136 -11.081,-5.701 -21.25,-8.183 -22.308,-5.444 -25.049,-7.084 -19.887,-11.893 6.228,-5.802 15.489,-6.652 27.046,-2.484 m 86.378,4.37 c 8.117,4.96 11.725,12.879 11.851,26.005 0.185,19.468 -8.621,29.474 -27.745,31.522 L 142,200.233 v -30.736 -30.736 l 9.287,0.407 c 7.615,0.333 10.001,0.842 13.25,2.827"
       id="path0" />
  </g>
</svg>

<svg id="svg" version="1.1" width="400" height="400" xmlns="http://www.w3.org/2000/svg" xmlns:xlink="http://www.w3.org/1999/xlink" style="display: block;"><g id="svgg"><path id="path0" d="M313.319 99.612 C 312.597 101.493,318.571 107.383,320.187 106.384 C 320.662 106.091,320.952 106.222,320.832 106.676 C 320.712 107.129,323.363 110.351,326.722 113.835 C 330.081 117.319,333.656 121.055,334.665 122.136 C 335.674 123.217,337.757 125.317,339.292 126.801 C 340.828 128.285,342.792 130.963,343.656 132.750 C 344.521 134.537,345.610 136.000,346.078 136.000 C 347.517 136.000,352.000 143.333,352.000 145.687 C 352.000 146.909,353.224 149.133,354.719 150.628 C 359.014 154.923,361.253 159.841,360.570 163.481 C 360.104 165.963,360.616 167.616,362.905 171.025 C 365.831 175.381,365.833 175.397,363.919 177.830 C 361.735 180.607,361.494 183.186,363.133 186.249 C 366.466 192.475,364.078 204.000,359.455 204.000 C 353.511 204.000,350.695 207.607,351.249 214.508 C 351.813 221.545,351.661 221.939,346.127 227.750 C 342.746 231.301,341.452 232.000,338.263 232.000 C 332.678 232.000,330.000 234.259,330.000 238.969 C 330.000 244.456,317.937 253.000,310.189 253.000 C 305.168 253.000,302.000 254.984,302.000 258.129 C 302.000 260.601,286.864 267.402,282.821 266.746 C 277.466 265.877,274.061 266.910,273.383 269.610 C 272.947 271.349,271.679 272.288,268.644 273.122 C 266.365 273.749,261.733 275.045,258.352 276.003 C 254.663 277.048,251.663 277.402,250.852 276.887 C 248.577 275.446,246.284 275.891,243.327 278.349 C 240.270 280.890,232.145 282.307,219.916 282.433 C 216.294 282.470,212.694 283.002,211.916 283.616 C 209.990 285.133,189.351 286.378,188.516 285.027 C 187.659 283.639,182.292 283.719,181.418 285.133 C 180.338 286.881,159.420 285.321,156.272 283.259 C 154.335 281.990,153.408 281.888,151.967 282.789 C 149.965 284.039,132.564 281.828,128.317 279.785 C 127.117 279.207,125.366 279.029,124.427 279.390 C 123.470 279.757,121.571 279.293,120.109 278.335 C 118.674 277.395,114.287 276.066,110.359 275.383 C 106.432 274.700,100.279 272.767,96.687 271.088 C 93.095 269.408,88.096 267.483,85.578 266.810 C 83.060 266.136,81.000 265.229,81.000 264.793 C 81.000 264.357,80.339 264.000,79.530 264.000 C 78.722 264.000,76.585 263.177,74.780 262.171 C 68.271 258.541,61.222 258.810,62.689 262.632 C 63.129 263.779,62.961 264.094,62.170 263.605 C 61.526 263.207,61.000 263.089,61.000 263.342 C 61.000 264.149,67.530 267.690,71.331 268.944 C 73.349 269.610,75.000 270.570,75.000 271.078 C 75.000 271.585,75.338 271.930,75.750 271.844 C 76.162 271.758,78.071 272.393,79.990 273.254 C 81.910 274.116,83.822 274.610,84.240 274.352 C 84.658 274.093,85.000 274.306,85.000 274.824 C 85.000 275.728,88.690 277.333,90.250 277.108 C 90.662 277.049,91.000 277.450,91.000 278.000 C 91.000 278.550,91.873 279.000,92.941 279.000 C 94.009 279.000,95.160 279.450,95.500 280.000 C 95.840 280.550,97.441 281.000,99.059 281.000 C 100.677 281.000,102.000 281.436,102.000 281.969 C 102.000 282.501,102.749 282.650,103.664 282.299 C 104.706 281.899,105.082 282.058,104.671 282.723 C 104.293 283.335,105.178 284.065,106.757 284.442 C 108.266 284.803,114.000 286.515,119.500 288.247 C 125.000 289.979,129.838 291.476,130.250 291.573 C 130.662 291.671,131.113 291.841,131.250 291.952 C 131.704 292.317,134.436 292.983,139.000 293.841 C 141.475 294.306,145.300 295.189,147.500 295.804 C 155.731 298.104,177.354 301.480,191.000 302.596 C 202.709 303.553,245.728 303.890,250.000 303.058 C 252.475 302.576,258.196 301.923,262.713 301.607 C 267.230 301.291,274.430 300.140,278.713 299.048 C 282.996 297.957,287.738 296.825,289.250 296.532 C 290.762 296.239,293.140 295.764,294.533 295.474 C 304.538 293.399,331.380 281.364,340.868 274.700 C 350.690 267.801,369.000 250.061,369.000 247.442 C 369.000 247.125,370.178 245.322,371.619 243.433 C 373.059 241.545,373.973 240.000,373.649 240.000 C 373.325 240.000,374.172 238.362,375.530 236.360 C 377.589 233.327,378.348 231.236,377.930 229.750 C 377.891 229.613,378.384 228.150,379.026 226.500 C 381.214 220.871,383.000 212.909,383.018 208.701 C 383.029 206.391,383.730 200.675,384.577 196.000 C 387.388 180.476,383.212 159.436,374.930 147.399 C 373.319 145.056,372.000 142.887,372.000 142.577 C 372.000 140.343,344.093 112.531,341.827 112.507 C 341.457 112.503,339.432 111.245,337.327 109.710 C 324.706 100.511,314.604 96.262,313.319 99.612 M46.743 106.901 C 24.670 111.524,12.000 125.417,12.000 145.000 C 12.000 169.405,22.902 179.274,59.000 187.548 C 68.179 189.651,71.000 191.275,71.000 194.452 C 71.000 202.079,56.560 205.616,43.500 201.187 C 32.922 197.600,30.608 196.542,25.013 192.734 C 20.796 189.864,18.541 189.000,15.263 189.000 L 11.000 189.000 11.000 204.845 C 11.000 223.741,10.092 222.318,25.500 227.567 C 52.197 236.662,85.009 232.122,99.444 217.337 L 105.000 211.647 105.000 218.668 C 105.000 229.767,103.175 229.227,139.165 228.773 C 167.453 228.416,169.972 228.237,176.500 226.109 C 192.254 220.975,206.284 207.746,210.798 193.770 L 212.500 188.500 212.772 207.115 C 213.131 231.782,207.666 229.082,256.592 228.762 L 296.500 228.500 296.782 216.104 C 297.173 198.924,298.859 200.000,271.542 200.000 L 250.000 200.000 250.000 156.155 C 250.000 103.034,252.490 108.845,229.893 109.225 L 213.500 109.500 213.000 130.500 C 212.516 150.836,212.454 151.342,211.058 146.500 C 209.454 140.935,206.277 134.922,204.296 133.700 C 203.583 133.260,203.000 132.406,203.000 131.800 C 203.000 128.463,181.745 112.442,177.000 112.202 C 176.175 112.161,171.657 111.415,166.960 110.546 C 160.262 109.307,152.712 109.024,131.960 109.233 L 105.500 109.500 105.180 112.841 C 104.877 116.002,104.761 116.094,103.043 114.539 C 96.752 108.845,60.768 103.963,46.743 106.901 M78.159 137.625 C 85.322 140.209,93.180 144.483,93.833 146.149 C 94.017 146.617,96.604 147.000,99.583 147.000 L 105.000 147.000 105.000 158.500 C 105.000 171.769,105.303 171.395,99.483 165.321 C 97.017 162.748,95.000 160.978,95.000 161.389 C 95.000 161.800,93.763 161.258,92.250 160.185 C 87.830 157.049,81.169 154.484,71.000 152.002 C 48.692 146.558,45.951 144.918,51.113 140.109 C 57.341 134.307,66.602 133.457,78.159 137.625 M164.537 141.995 C 172.654 146.955,176.262 154.874,176.388 168.000 C 176.573 187.468,167.767 197.474,148.643 199.522 L 142.000 200.233 142.000 169.497 L 142.000 138.761 151.287 139.168 C 158.902 139.501,161.288 140.010,164.537 141.995 M234.000 247.000 C 234.000 247.550,236.363 247.993,239.250 247.985 C 243.008 247.974,244.074 247.694,243.000 247.000 C 241.021 245.721,234.000 245.721,234.000 247.000 " stroke="none" fill="#000000" fill-rule="evenodd"></path></g></svg>
